svg/300/outlined/texture-fill.svg

<svg xmlns="http://www.w3.org/2000/svg" width="48" height="48" viewBox="0 -960 960 960"><path d="M171.385-140.001q-13.769-6.462-19.653-13.462-5.884-7-11.731-20.768l647.998-645.768q11.154 4.231 19.769 12.846 8.615 8.616 12.231 20.384L171.385-140.001ZM140.001-414.54v-65.229l340.23-340.23h65.229L140.001-414.54Zm0-306.153v-41.613q0-23.616 17.039-40.654 17.038-17.039 40.654-17.039h41.613l-99.306 99.306Zm580.692 580.692 99.306-99.306v41.613q0 23.616-17.039 40.654-17.038 17.039-40.654 17.039h-41.613Zm-306.153 0L819.999-545.46v65.229l-340.23 340.23H414.54Z"/></svg>

<svg xmlns="http://www.w3.org/2000/svg" width="48" height="48" viewBox="0 -960 960 960"><path d="M171.39-140q-13.77-6.46-19.66-13.46-5.88-7-11.73-20.77L788-820q11.15 4.23 19.77 12.85 8.61 8.61 12.23 20.38L171.39-140ZM140-414.54v-65.23L480.23-820h65.23L140-414.54Zm0-306.15v-41.62q0-23.61 17.04-40.65T197.69-820h41.62L140-720.69ZM720.69-140 820-239.31v41.62q0 23.61-17.04 40.65T762.31-140h-41.62Zm-306.15 0L820-545.46v65.23L479.77-140h-65.23Z"/></svg>
